src/icons/classification-reference.icon.svg

<svg width="24px" height="24px" viewBox="0 0 24 24" version="1.1" xmlns="http://www.w3.org/2000/svg" xmlns:xlink="http://www.w3.org/1999/xlink">
    <path d="M12,22 C17.5228475,22 22,17.5228475 22,12 C22,6.4771525 17.5228475,2 12,2 C6.4771525,2 2,6.4771525 2,12 C2,17.5228475 6.4771525,22 12,22 Z" id="bg_icon" fill="#009999"></path>
    <path d="M11.7526727,11.6693051 L12.318051,11.6693051 C12.8721245,11.6693051 13.2810774,11.5769609 13.5449219,11.3922697 C13.8087664,11.2075786 13.9406867,10.917354 13.9406867,10.5215872 C13.9406867,10.1295896 13.8059395,9.85067243 13.5364412,9.6848273 C13.2669429,9.51898218 12.8495094,9.43606086 12.2841283,9.43606086 L11.7526727,9.43606086 L11.7526727,11.6693051 Z M11.7526727,13.0940584 L11.7526727,16.2658306 L10,16.2658306 L10,8 L12.4085115,8 C13.5317353,8 14.3628331,8.20447644 14.9018298,8.61343544 C15.4408264,9.02239445 15.7103207,9.64336206 15.7103207,10.4763569 C15.7103207,10.9625847 15.5765159,11.3950947 15.3089021,11.7739001 C15.0412884,12.1527054 14.6624887,12.4495261 14.1724918,12.6643709 C15.4163302,14.5225902 16.2266977,15.7230647 16.6036184,16.2658306 L14.6587171,16.2658306 L12.6855469,13.0940584 L11.7526727,13.0940584 Z" id="R" fill="#FFFFFF"></path>
</svg>

<svg xmlns="http://www.w3.org/2000/svg" viewBox="0 0 24 24"><path d="M12 22c5.523 0 10-4.477 10-10S17.523 2 12 2 2 6.477 2 12s4.477 10 10 10z" fill="#099"/><path d="M11.753 11.67h.565c.554 0 .963-.093 1.227-.278.264-.184.396-.475.396-.87 0-.392-.135-.671-.405-.837-.27-.166-.686-.249-1.252-.249h-.531v2.233zm0 1.424v3.172H10V8h2.409c1.123 0 1.954.204 2.493.613.539.41.808 1.03.808 1.863 0 .487-.133.92-.401 1.298-.268.379-.647.676-1.137.89a333.826 333.826 0 002.432 3.602h-1.945l-1.973-3.172h-.933z" fill="#FFF"/></svg>
